;FLAVOR:Marlin
;TIME:5807
;Filament used: 3.02308m
;Layer height: 0.2
;MINX:79
;MINY:67.5
;MINZ:0.2
;MAXX:162.5
;MAXY:152.5
;MAXZ:10
;Generated with Cura_SteamEngine 5.4.0
M82 ;absolute extrusion mode
; Ender 3 Custom Start G-code
G92 E0 ; Reset Extruder
G28 ; Home all axes
M104 S175 ; Start heating up the nozzle most of the way
M190 S60 ; Start heating the bed, wait until target temperature reached
M109 S200 ; Finish heating the nozzle
G1 Z2.0 F3000 ; Move Z Axis up little to prevent scratching of Heat Bed
G1 X0.1 Y20 Z0.3 F5000.0 ; Move to start position
G1 X0.1 Y200.0 Z0.3 F1500.0 E15 ; Draw the first line
G1 X0.4 Y200.0 Z0.3 F5000.0 ; Move to side a little
G1 X0.4 Y20 Z0.3 F1500.0 E30 ; Draw the second line
G92 E0 ; Reset Extruder
G1 Z2.0 F3000 ; Move Z Axis up little to prevent scratching of Heat Bed
G1 X5 Y20 Z0.3 F5000.0 ; Move over to prevent blob squish
G92 E0
G92 E0
G1 F1500 E-6.5
;LAYER_COUNT:50
;LAYER:0
M107
G0 F6000 X81.731 Y71.265 Z0.2
;TYPE:SKIRT
G1 F1500 E0
G1 F1200 X82.456 Y70.513 E0.03474
G1 X83.192 Y69.876 E0.06712
G1 X83.924 Y69.346 E0.09718
G1 X84.821 Y68.811 E0.13191
G1 X85.699 Y68.39 E0.1643
G1 X86.612 Y68.048 E0.19673
G1 X87.549 Y67.789 E0.22906
G1 X88.516 Y67.611 E0.26176
G1 X89.655 Y67.515 E0.29978
G1 X90.312 Y67.5 E0.32164
G1 X129.304 Y67.5 E1.61852
G1 X130.19 Y67.513 E1.64799
G1 X131.161 Y67.572 E1.68034
G1 X132.125 Y67.718 E1.71277
G1 X133.072 Y67.949 E1.74519
G1 X133.928 Y68.237 E1.77523
G1 X134.884 Y68.655 E1.80994
G1 X135.703 Y69.105 E1.84102
G1 X136.297 Y69.492 E1.8646
G1 X138.721 Y71.137 E1.96203
G1 X140.902 Y72.523 E2.04798
G1 X143.033 Y73.793 E2.13049
G1 X145.242 Y75.027 E2.21465
G1 X147.459 Y76.185 E2.29784
G1 X149.741 Y77.295 E2.38224
G1 X152 Y78.317 E2.46471
G1 X154.427 Y79.332 E2.5522
G1 X155.626 Y79.814 E2.59518
G1 X156.51 Y80.22 E2.62754
G1 X157.356 Y80.702 E2.65992
G1 X158.158 Y81.257 E2.69236
G1 X158.853 Y81.834 E2.72241
G1 X159.595 Y82.57 E2.75717
G1 X160.221 Y83.316 E2.78956
G1 X160.777 Y84.113 E2.82188
G1 X161.264 Y84.957 E2.85429
G1 X161.645 Y85.776 E2.88433
G1 X162 Y86.759 E2.91909
G1 X162.238 Y87.666 E2.95028
G1 X162.408 Y88.664 E2.98395
G1 X162.487 Y89.706 E3.01871
G1 X162.5 Y90.33 E3.03947
G1 X162.499 Y129.415 E4.33944
G1 X162.487 Y130.178 E4.36482
G1 X162.429 Y131.151 E4.39724
G1 X162.283 Y132.114 E4.42964
G1 X162.052 Y133.06 E4.46202
G1 X161.739 Y133.983 E4.49444
G1 X161.347 Y134.874 E4.52682
G1 X160.895 Y135.697 E4.55805
G1 X160.333 Y136.534 E4.59158
G1 X159.767 Y137.237 E4.6216
G1 X159.041 Y137.99 E4.65639
G1 X158.304 Y138.626 E4.68876
G1 X157.514 Y139.196 E4.72117
G1 X156.738 Y139.659 E4.75122
G1 X155.604 Y140.194 E4.79292
G1 X153.193 Y141.166 E4.87939
G1 X150.867 Y142.18 E4.96378
G1 X148.583 Y143.253 E5.04771
G1 X146.346 Y144.382 E5.13105
G1 X144.136 Y145.577 E5.21462
G1 X141.942 Y146.845 E5.2989
G1 X139.8 Y148.166 E5.3826
G1 X137.7 Y149.544 E5.46614
G1 X137.113 Y149.955 E5.48998
G1 X136.141 Y150.614 E5.52904
G1 X135.311 Y151.122 E5.5614
G1 X134.503 Y151.525 E5.59143
G1 X133.531 Y151.907 E5.62617
G1 X132.664 Y152.162 E5.65623
G1 X131.625 Y152.367 E5.69145
G1 X130.327 Y152.485 E5.7348
G1 X129.67 Y152.5 E5.75666
G1 X90.564 Y152.499 E7.05733
G1 X89.831 Y152.488 E7.08171
G1 X88.859 Y152.431 E7.11409
G1 X87.896 Y152.285 E7.14649
G1 X86.95 Y152.056 E7.17886
G1 X86.026 Y151.744 E7.2113
G1 X85.136 Y151.352 E7.24365
G1 X84.313 Y150.901 E7.27486
G1 X83.474 Y150.34 E7.30843
G1 X82.77 Y149.774 E7.33847
G1 X82.017 Y149.049 E7.37324
G1 X81.38 Y148.313 E7.40561
G1 X80.85 Y147.582 E7.43564
G1 X80.314 Y146.685 E7.4704
G1 X79.892 Y145.807 E7.5028
G1 X79.55 Y144.895 E7.5352
G1 X79.29 Y143.957 E7.56757
G1 X79.112 Y142.988 E7.60034
G1 X79.014 Y141.809 E7.63969
G1 X79 Y141.158 E7.66135
G1 X79.001 Y79.025 E9.7279
G1 X79.012 Y78.325 E9.75118
G1 X79.07 Y77.352 E9.7836
G1 X79.216 Y76.389 E9.816
G1 X79.446 Y75.443 E9.84838
G1 X79.759 Y74.52 E9.88079
G1 X80.151 Y73.63 E9.91314
G1 X80.621 Y72.777 E9.94553
G1 X81.164 Y71.969 E9.97791
G1 X81.731 Y71.265 E10.00798
G0 F6000 X82.043 Y71.516
G1 F1200 X82.718 Y70.815 E10.04034
G1 X83.427 Y70.2 E10.07156
G1 X84.159 Y69.67 E10.10162
G1 X84.995 Y69.171 E10.134
G1 X85.84 Y68.764 E10.1652
G1 X86.719 Y68.433 E10.19644
G1 X87.622 Y68.182 E10.22761
G1 X88.55 Y68.01 E10.259
G1 X89.689 Y67.914 E10.29702
G1 X90.321 Y67.9 E10.31804
G1 X129.298 Y67.9 E11.61442
G1 X130.166 Y67.912 E11.64329
G1 X131.102 Y67.968 E11.67448
G1 X132.031 Y68.107 E11.70572
G1 X132.944 Y68.328 E11.73697
G1 X133.8 Y68.616 E11.76701
G1 X134.691 Y69.006 E11.79936
G1 X135.51 Y69.456 E11.83044
G1 X136.072 Y69.823 E11.85276
G1 X138.506 Y71.475 E11.9506
G1 X140.688 Y72.862 E12.0366
G1 X142.828 Y74.137 E12.11945
G1 X145.057 Y75.382 E12.20437
G1 X147.284 Y76.545 E12.28793
G1 X149.566 Y77.655 E12.37233
G1 X151.846 Y78.686 E12.45556
G1 X154.278 Y79.703 E12.54323
G1 X155.46 Y80.178 E12.5856
G1 X156.313 Y80.568 E12.6168
G1 X157.129 Y81.031 E12.648
G1 X157.902 Y81.565 E12.67925
G1 X158.597 Y82.142 E12.7093
G1 X159.289 Y82.827 E12.74168
G1 X159.893 Y83.545 E12.77289
G1 X160.431 Y84.313 E12.80408
G1 X160.901 Y85.126 E12.83531
G1 X161.282 Y85.945 E12.86535
G1 X161.613 Y86.861 E12.89775
G1 X161.851 Y87.768 E12.92894
G1 X162.009 Y88.695 E12.96021
G1 X162.087 Y89.714 E12.9942
G1 X162.1 Y90.33 E13.0147
G1 X162.099 Y129.409 E14.31447
G1 X162.088 Y130.155 E14.33928
G1 X162.033 Y131.092 E14.3705
G1 X161.894 Y132.02 E14.40171
G1 X161.673 Y132.932 E14.43292
G1 X161.373 Y133.822 E14.46416
G1 X160.996 Y134.681 E14.49536
G1 X160.544 Y135.504 E14.52659
G1 X160.021 Y136.283 E14.5578
G1 X159.455 Y136.986 E14.58782
G1 X158.779 Y137.688 E14.62023
G1 X158.07 Y138.302 E14.65143
G1 X157.309 Y138.852 E14.68266
G1 X156.533 Y139.315 E14.71271
G1 X155.454 Y139.823 E14.75238
G1 X153.033 Y140.799 E14.8392
G1 X150.707 Y141.813 E14.92359
G1 X148.413 Y142.891 E15.00789
G1 X146.156 Y144.03 E15.09198
G1 X143.946 Y145.225 E15.17554
G1 X141.742 Y146.499 E15.26021
G1 X139.59 Y147.826 E15.3443
G1 X137.471 Y149.216 E15.42859
G1 X136.888 Y149.624 E15.45226
G1 X135.932 Y150.273 E15.49069
G1 X135.132 Y150.764 E15.52191
G1 X134.324 Y151.167 E15.55194
G1 X133.418 Y151.523 E15.58432
G1 X132.551 Y151.778 E15.61438
G1 X131.589 Y151.969 E15.647
G1 X130.318 Y152.085 E15.68945
G1 X129.67 Y152.1 E15.71101
G1 X90.57 Y152.099 E17.01148
G1 X89.854 Y152.089 E17.03529
G1 X88.918 Y152.035 E17.06648
G1 X87.989 Y151.896 E17.09772
G1 X87.077 Y151.677 E17.12891
G1 X86.187 Y151.378 E17.16014
G1 X85.328 Y151.001 E17.19134
G1 X84.505 Y150.55 E17.22256
G1 X83.725 Y150.028 E17.25377
G1 X83.021 Y149.462 E17.28382
G1 X82.319 Y148.787 E17.31621
G1 X81.704 Y148.078 E17.34743
G1 X81.174 Y147.347 E17.37746
G1 X80.674 Y146.511 E17.40986
G1 X80.266 Y145.666 E17.44106
G1 X79.935 Y144.788 E17.47227
G1 X79.683 Y143.884 E17.50349
G1 X79.511 Y142.955 E17.53491
G1 X79.413 Y141.776 E17.57426
G1 X79.4 Y141.158 E17.59482
G1 X79.401 Y79.031 E19.66117
G1 X79.411 Y78.348 E19.68389
G1 X79.466 Y77.411 E19.71511
G1 X79.605 Y76.483 E19.74632
G1 X79.825 Y75.571 E19.77752
G1 X80.125 Y74.681 E19.80876
G1 X80.502 Y73.822 E19.83996
G1 X80.953 Y73 E19.87115
G1 X81.476 Y72.22 E19.90238
G1 X82.043 Y71.516 E19.93245
G0 F6000 X82.355 Y71.767
G1 F1200 X82.981 Y71.117 E19.96246
G1 X83.662 Y70.524 E19.99249
G1 X84.394 Y69.994 E20.02255
G1 X85.169 Y69.531 E20.05258
G1 X85.982 Y69.138 E20.08261
G1 X86.827 Y68.818 E20.11267
G1 X87.696 Y68.575 E20.14268
G1 X88.584 Y68.409 E20.17272
G1 X89.723 Y68.313 E20.21074
G1 X90.33 Y68.3 E20.23094
G1 X129.293 Y68.3 E21.52685
G1 X130.143 Y68.311 E21.55512
G1 X131.044 Y68.364 E21.58514
G1 X131.938 Y68.496 E21.6152
G1 X132.816 Y68.707 E21.64523
G1 X133.672 Y68.995 E21.67527
G1 X134.499 Y69.357 E21.7053
G1 X135.291 Y69.791 E21.73534
G1 X135.847 Y70.154 E21.75742
G1 X138.291 Y71.813 E21.85567
G1 X140.474 Y73.201 E21.94171
G1 X142.623 Y74.481 E22.0249
G1 X144.872 Y75.737 E22.11058
G1 X147.109 Y76.905 E22.19451
G1 X149.391 Y78.015 E22.27892
G1 X151.692 Y79.055 E22.3629
G1 X154.129 Y80.074 E22.45076
G1 X155.294 Y80.542 E22.49251
G1 X156.116 Y80.916 E22.52255
G1 X156.902 Y81.361 E22.55259
G1 X157.646 Y81.873 E22.58263
G1 X158.341 Y82.45 E22.61267
G1 X158.983 Y83.085 E22.64271
G1 X159.566 Y83.775 E22.67275
G1 X160.085 Y84.514 E22.70279
G1 X160.538 Y85.295 E22.73282
G1 X160.919 Y86.114 E22.76286
G1 X161.226 Y86.963 E22.79289
G1 X161.457 Y87.836 E22.82292
G1 X161.61 Y88.726 E22.85296
G1 X161.687 Y89.723 E22.88622
G1 X161.7 Y90.33 E22.90641
G1 X161.699 Y129.404 E24.20602
G1 X161.689 Y130.132 E24.23023
G1 X161.637 Y131.034 E24.26028
G1 X161.505 Y131.927 E24.29031
G1 X161.294 Y132.805 E24.32034
G1 X161.007 Y133.662 E24.3504
G1 X160.645 Y134.489 E24.38043
G1 X160.212 Y135.281 E24.41045
G1 X159.709 Y136.032 E24.44051
G1 X159.143 Y136.735 E24.47053
G1 X158.517 Y137.386 E24.50057
G1 X157.835 Y137.978 E24.53061
G1 X157.104 Y138.508 E24.56064
G1 X156.328 Y138.971 E24.59069
G1 X155.304 Y139.452 E24.62832
G1 X152.873 Y140.432 E24.7155
G1 X150.547 Y141.446 E24.7999
G1 X148.243 Y142.529 E24.88457
G1 X145.966 Y143.678 E24.9694
G1 X143.756 Y144.873 E25.05296
G1 X141.542 Y146.153 E25.13802
G1 X139.38 Y147.486 E25.2225
G1 X137.242 Y148.888 E25.30753
G1 X136.663 Y149.293 E25.33104
G1 X135.722 Y149.932 E25.36887
G1 X134.953 Y150.406 E25.39891
G1 X134.145 Y150.809 E25.42894
G1 X133.305 Y151.139 E25.45896
G1 X132.438 Y151.394 E25.48902
G1 X131.552 Y151.571 E25.51907
G1 X130.309 Y151.685 E25.56059
G1 X129.67 Y151.7 E25.58185
G1 X90.575 Y151.699 E26.88215
G1 X89.877 Y151.69 E26.90537
G1 X88.976 Y151.639 E26.93538
G1 X88.082 Y151.507 E26.96544
G1 X87.204 Y151.298 E26.99546
G1 X86.347 Y151.011 E27.02552
G1 X85.52 Y150.65 E27.05553
G1 X84.727 Y150.217 E27.08558
G1 X83.976 Y149.716 E27.11561
G1 X83.272 Y149.15 E27.14565
G1 X82.621 Y148.524 E27.17569
G1 X82.028 Y147.843 E27.20573
G1 X81.498 Y147.112 E27.23576
G1 X81.034 Y146.337 E27.2658
G1 X80.64 Y145.524 E27.29585
G1 X80.32 Y144.68 E27.32587
G1 X80.076 Y143.81 E27.35592
G1 X79.91 Y142.922 E27.38597
G1 X79.813 Y141.767 E27.42452
G1 X79.8 Y141.158 E27.44478
G1 X79.801 Y79.036 E29.51097
G1 X79.81 Y78.371 E29.53309
G1 X79.862 Y77.469 E29.56314
G1 X79.994 Y76.576 E29.59316
G1 X80.204 Y75.698 E29.62319
G1 X80.491 Y74.841 E29.65325
G1 X80.853 Y74.014 E29.68327
G1 X81.286 Y73.222 E29.71329
G1 X81.788 Y72.471 E29.74334
G1 X82.355 Y71.767 E29.7734
G1 F1500 E23.2734
;MESH:LimitSwitchHolder.stl(1)
G0 F6000 X111.678 Y88.75
G0 X115.481 Y91.615
;TYPE:WALL-INNER
G1 F1500 E29.7734
G1 F1200 X115 Y91.649 E29.78944
G1 X114.581 Y91.622 E29.80341
G1 X114.069 Y91.512 E29.82082
G1 X113.596 Y91.318 E29.83783
G1 X113.187 Y91.075 E29.85365
G1 X112.888 Y90.834 E29.86642
G1 X112.536 Y90.468 E29.88331
G1 X112.251 Y90.035 E29.90056
G1 X112.051 Y89.604 E29.91636
G1 X111.921 Y89.161 E29.93171
G1 X111.858 Y88.737 E29.94597
G1 X111.858 Y88.263 E29.96174
G1 X111.921 Y87.839 E29.97599
G1 X112.051 Y87.396 E29.99135
G1 X112.251 Y86.965 E30.00715
G1 X112.536 Y86.532 E30.02439
G1 X112.888 Y86.166 E30.04128
G1 X113.187 Y85.925 E30.05406
G1 X113.596 Y85.682 E30.06988
G1 X114.025 Y85.506 E30.0853
G1 X114.519 Y85.385 E30.10222
G1 X115 Y85.351 E30.11826
G1 X115.419 Y85.378 E30.13222
G1 X115.931 Y85.488 E30.14964
G1 X116.404 Y85.682 E30.16664
G1 X116.813 Y85.925 E30.18247
G1 X117.112 Y86.166 E30.19524
G1 X117.464 Y86.532 E30.21213
G1 X117.749 Y86.965 E30.22937
G1 X117.93 Y87.342 E30.24328
G1 X118.079 Y87.839 E30.26054
G1 X118.144 Y88.308 E30.27628
G1 X118.144 Y88.692 E30.28906
G1 X118.077 Y89.173 E30.30521
G1 X117.93 Y89.658 E30.32207
G1 X117.705 Y90.112 E30.33892
G1 X117.461 Y90.471 E30.35336
G1 X117.112 Y90.834 E30.3701
G1 X116.813 Y91.075 E30.38288
G1 X116.404 Y91.318 E30.3987
G1 X115.975 Y91.494 E30.41412
G1 X115.481 Y91.615 E30.43104
G1 F1500 E23.93104
G0 F6000 X115.503 Y91.712
G0 X116.884 Y91.251
G0 X116.884 Y97.7
G0 X129.4 Y97.9
G1 F1500 E30.43104
G1 F1200 X129.4 Y79.1 E31.05633
G1 X90.6 Y79.1 E32.34682
G1 X90.6 Y97.9 E32.97211
G1 X129.4 Y97.9 E34.26261
G0 F6000 X129.8 Y98.3
;TYPE:WALL-OUTER
G1 F1200 X129.8 Y78.7 E34.9145
G1 X90.2 Y78.7 E36.23161
G1 X90.2 Y98.3 E36.8835
G1 X129.8 Y98.3 E38.20061
G1 F1500 E31.70061
G0 F6000 X129.53 Y98.03
G0 X114.568 Y97.7
G0 X114.884 Y91.819
G0 X114.609 Y91.223
G1 F1500 E38.20061
G1 F1200 X114.172 Y91.122 E38.21552
G1 X113.795 Y90.971 E38.22903
G1 X113.438 Y90.763 E38.24277
G1 X113.139 Y90.522 E38.25555
G1 X112.843 Y90.206 E38.26995
G1 X112.611 Y89.861 E38.28378
G1 X112.433 Y89.487 E38.29755
G1 X112.323 Y89.128 E38.31004
G1 X112.257 Y88.707 E38.32421
G1 X112.257 Y88.293 E38.33798
G1 X112.323 Y87.872 E38.35216
G1 X112.444 Y87.485 E38.36564
G1 X112.626 Y87.113 E38.37942
G1 X112.843 Y86.794 E38.39225
G1 X113.139 Y86.478 E38.40665
G1 X113.464 Y86.219 E38.42047
G1 X113.795 Y86.029 E38.43317
G1 X114.201 Y85.869 E38.44768
G1 X114.588 Y85.779 E38.4609
G1 X115.014 Y85.751 E38.4751
G1 X115.391 Y85.777 E38.48766
G1 X115.828 Y85.878 E38.50258
G1 X116.205 Y86.029 E38.51609
G1 X116.562 Y86.237 E38.52983
G1 X116.861 Y86.478 E38.54261
G1 X117.157 Y86.794 E38.55701
G1 X117.389 Y87.139 E38.57083
G1 X117.567 Y87.513 E38.58461
G1 X117.677 Y87.872 E38.5971
G1 X117.744 Y88.308 E38.61177
G1 X117.744 Y88.692 E38.62454
G1 X117.683 Y89.104 E38.63839
G1 X117.556 Y89.515 E38.6527
G1 X117.374 Y89.887 E38.66648
G1 X117.157 Y90.206 E38.67931
G1 X116.861 Y90.522 E38.69371
G1 X116.536 Y90.781 E38.70753
G1 X116.205 Y90.971 E38.72023
G1 X115.799 Y91.131 E38.73474
G1 X115.412 Y91.221 E38.74796
G1 X114.986 Y91.249 E38.76215
G1 X114.609 Y91.223 E38.77472
G1 F1500 E32.27472
G0 F6000 X114.568 Y91.722
G0 X116.446 Y91.501
G0 X129.2 Y91.501
G0 X129.04 Y97.54
;TYPE:SKIN
G1 F1500 E38.77472
G1 F1200 X90.96 Y97.54 E40.04127
G1 X90.96 Y79.46 E40.64261
G1 X129.04 Y79.46 E41.90916
G1 X129.04 Y97.54 E42.5105
G1 F1500 E36.0105
G0 F6000 X129.3 Y97.54
G0 X129.2 Y91.72
G0 X117.306 Y90.9
G0 X114.472 Y91.974
G1 F1500 E42.5105
G1 F1200 X115.048 Y92.007 E42.52969
G1 X115.543 Y91.971 E42.5462
G1 X116.031 Y91.858 E42.56286
G1 X116.508 Y91.671 E42.5799
G1 X116.997 Y91.39 E42.59866
G1 X117.425 Y91.033 E42.6172
G1 X117.726 Y90.716 E42.63173
G1 X118.039 Y90.261 E42.6501
G1 X118.259 Y89.808 E42.66685
G1 X118.432 Y89.235 E42.68676
G1 X118.504 Y88.742 E42.70333
G1 X118.502 Y88.224 E42.72056
G1 X118.425 Y87.726 E42.73732
G1 X118.258 Y87.187 E42.75609
G1 X118.054 Y86.765 E42.77168
G1 X117.746 Y86.309 E42.78998
G1 X117.437 Y85.978 E42.80504
G1 X117.002 Y85.612 E42.82395
G1 X116.539 Y85.344 E42.84174
G1 X116.026 Y85.139 E42.86012
G1 X115.528 Y85.026 E42.8771
G1 X114.952 Y84.993 E42.89629
G1 X114.457 Y85.029 E42.9128
G1 X113.969 Y85.142 E42.92946
G1 X113.492 Y85.329 E42.9465
G1 X113.003 Y85.61 E42.96526
G1 X112.575 Y85.967 E42.98379
G1 X112.274 Y86.284 E42.99833
G1 X111.961 Y86.738 E43.01667
G1 X111.735 Y87.204 E43.0339
G1 X111.58 Y87.707 E43.05141
G1 X111.499 Y88.238 E43.06927
G1 X111.499 Y88.762 E43.0867
G1 X111.58 Y89.293 E43.10457
G1 X111.724 Y89.768 E43.12107
G1 X111.946 Y90.236 E43.1383
G1 X112.254 Y90.691 E43.15658
G1 X112.563 Y91.022 E43.17164
G1 X112.998 Y91.388 E43.19055
G1 X113.461 Y91.656 E43.20834
G1 X113.974 Y91.861 E43.22671
G1 X114.472 Y91.974 E43.2437
G1 F1500 E36.7437
G0 F6000 X114.527 Y91.72
G0 X116.297 Y91.194
G0 X117.034 Y90.692
G0 X117.589 Y89.995
G0 X117.852 Y89.323
G0 X118.248 Y87.754
G0 X129.2 Y87.754
G0 X128.839 Y80.19
G1 F1500 E43.2437
G1 F1200 X128.308 Y79.659 E43.26867
G0 F6000 X127.743 Y79.659
G1 F1200 X128.839 Y80.755 E43.32023
G0 F6000 X128.839 Y81.321
G1 F1200 X127.177 Y79.659 E43.3984
G0 F6000 X126.611 Y79.659
G1 F1200 X128.839 Y81.887 E43.5032
G0 F6000 X128.839 Y82.452
G1 F1200 X126.046 Y79.659 E43.63458
G0 F6000 X125.48 Y79.659
